images/journees_logo.svg

<svg width="222" height="30" viewBox="0 0 222 30" fill="none" xmlns="http://www.w3.org/2000/svg">
<path opacity="0.7" fill-rule="evenodd" clip-rule="evenodd" d="M19.229 5.80588L16.0287 10.8414L24.208 10.8461L14.9631 22.1581L14.4683 22.7505L14.1123 23.1779C13.398 23.9693 12.3787 24.3627 10.969 24.3967H4.25873L0 29.4954H8.7275C12.3419 29.4954 15.0189 28.8386 17.9605 27.2253C19.3642 26.4361 20.2613 25.6798 21.8265 23.8019L36.8548 5.80588H19.229V5.80588ZM51.7646 19.7042L59.9522 9.89892C60.1717 9.6355 60.3912 9.37207 60.5051 9.10982C61.5458 6.97081 60.0851 5.91711 56.047 5.91711H46.2646C42.2242 5.91711 39.0062 6.97081 36.5285 9.10982C36.2301 9.34581 35.9559 9.61012 35.7098 9.89892L27.5222 19.7042C27.3549 19.9676 27.1365 20.2299 27.0238 20.4933C25.9286 22.6311 27.3893 23.686 31.4273 23.686H41.2097C45.2513 23.686 48.4694 22.6323 50.9992 20.4933C51.3231 20.231 51.5439 19.9676 51.7646 19.7042V19.7042ZM45.0412 18.6505C44.3945 18.9771 43.6968 19.1762 43.3266 19.1762H36.8928C36.7516 19.1811 36.6108 19.1573 36.4793 19.1061C36.3478 19.0549 36.2284 18.9775 36.1286 18.8788C35.9245 18.6177 35.9578 18.3203 36.2615 17.9597L41.536 11.6422C41.8386 11.2804 42.2978 10.9842 42.9433 10.7196C43.4275 10.5229 43.8831 10.4234 44.2011 10.4234H50.6337C50.8983 10.4234 51.1891 10.5218 51.3433 10.7196C51.602 10.9831 51.5664 11.2804 51.2638 11.6422L46.0166 17.9269C45.7983 18.1915 45.4186 18.4538 45.0412 18.6505V18.6505ZM97.1926 20.087C100.685 19.7896 104.017 18.4749 106.493 16.3347C106.877 16.008 107.149 15.6767 107.422 15.3489L111.381 10.6108C111.625 10.3145 111.876 10.0183 112.042 9.68935C113.549 7.12301 112.039 5.80705 107.471 5.80705H85.7953L71.5928 22.8173L71.1514 23.343L70.9615 23.508C70.3599 24.1004 69.3691 24.3978 67.4527 24.3978H61.8721C59.9581 24.3978 59.4621 24.1004 59.8501 23.4425L59.9866 23.2774L60.4553 22.7189L74.5759 5.80705H66.3385L51.475 23.6064C49.9099 25.482 49.5717 26.1423 49.5515 26.9314C49.5563 28.7063 51.2353 29.4966 55.1167 29.4966H65.6965C69.5755 29.4966 72.5207 28.7051 75.5762 26.8963C76.872 26.1072 77.6362 25.4492 79.2001 23.5713L89.7799 10.9058H100.394C100.553 10.9058 100.768 10.9058 100.898 10.9386C102.224 11.0709 102.452 11.4994 101.763 12.3224L99.9527 14.4919C99.1577 15.4472 98.187 15.8406 96.6456 15.8406H93.297C90.4788 15.8406 87.7674 16.8604 85.8534 18.8366C85.1142 19.593 84.859 20.2181 84.954 20.6794L86.2557 29.4966H95.9835L94.4563 20.1186L95.7082 20.1502C96.1805 20.1502 96.6871 20.1186 97.1926 20.087V20.087ZM138.634 9.33929C139.945 7.06798 138.782 5.91711 134.738 5.91711H124.638C120.601 5.91711 117.511 7.06798 115.031 9.33929C114.758 9.60271 114.459 9.89892 114.238 10.1612L102.945 23.686H110.228L120.258 11.6762L120.476 11.4127C121.213 10.7208 122.098 10.4246 123.642 10.4246H128.16C129.703 10.4246 130.093 10.7208 129.675 11.4127C129.65 11.5111 129.563 11.6094 129.51 11.6762L119.479 23.686H126.764L138.056 10.1612C138.272 9.89892 138.469 9.60388 138.634 9.33929ZM141.566 17.9281L141.814 17.6307L161.509 13.7812L164.478 10.2279C164.699 9.96449 164.918 9.70106 165.055 9.47158C166.332 7.43209 165.512 6.31283 162.438 5.98384C162.042 5.95106 161.646 5.91711 161.217 5.91711H151.33C147.342 5.91711 144.255 7.00359 141.645 9.17421C141.32 9.44335 141.019 9.74032 140.746 10.0617L133.218 19.0766C131.484 21.1501 131.455 22.3349 133.29 23.1908C134 23.5525 134.847 23.6848 137.184 23.6848H153.186L156.95 19.175H141.96C141.056 19.1762 140.963 18.6505 141.566 17.9281V17.9281ZM146.571 11.8073C146.705 11.6434 146.897 11.4783 147.113 11.346C147.626 11.051 148.137 10.8859 148.993 10.7536C149.416 10.688 149.711 10.6564 149.871 10.6564H154.972C155.081 10.6564 155.188 10.6564 155.32 10.688C156.086 10.7864 156.268 11.0826 156.124 11.3788L156.071 11.4455L155.985 11.5439L145.063 13.6161L146.571 11.8073V11.8073ZM199.348 11.2477C199.454 11.1165 199.783 10.9187 200.479 10.6564L200.722 10.5569C200.95 10.5 201.181 10.4558 201.415 10.4246H214.653L218.363 5.91711H203.688C199.968 5.91711 196.698 6.97081 194.329 8.91196C193.899 9.23977 193.544 9.60272 193.267 9.93171L190.491 13.2544C189.336 14.6347 189.55 15.6568 191.413 16.5443C192.043 16.8732 192.968 17.0383 194.136 17.0383H200.41C200.884 17.1051 201.04 17.235 201.059 17.53C201.04 17.6755 200.981 17.8132 200.889 17.9281L200.588 18.2899C200.528 18.3681 200.454 18.4348 200.369 18.4866C199.854 18.9139 199.29 19.079 198.358 19.1773H168.428C167.522 19.1773 167.434 18.6516 168.039 17.9293L168.282 17.6319L187.982 13.7824L190.946 10.2291C191.157 9.99059 191.351 9.73786 191.526 9.47275C192.805 7.43326 191.982 6.314 188.909 5.98501C188.51 5.95223 188.112 5.91828 187.688 5.91828H177.799C173.813 5.91828 170.726 7.00476 168.111 9.17538C167.787 9.44513 167.487 9.74205 167.214 10.0628L159.684 19.0778C157.955 21.1513 157.926 22.3361 159.76 23.1919C160.47 23.5537 161.316 23.686 163.656 23.686H196.611C199.323 23.686 201.063 23.2563 203.809 21.8748C205.054 21.2168 206.078 20.4933 206.711 19.737L209.538 16.4787C210.171 15.7235 210.384 14.7682 209.956 13.8796C209.453 12.9593 208.373 12.532 206.51 12.532H200.026C199.229 12.4676 198.995 12.3681 198.918 12.2042C198.846 11.9747 198.904 11.7757 198.986 11.6773L199.348 11.2477V11.2477ZM173.043 11.8073C173.199 11.626 173.382 11.4702 173.588 11.346C174.1 11.051 174.609 10.8859 175.465 10.7536C175.891 10.688 176.185 10.6564 176.343 10.6564H181.449C181.556 10.6564 181.66 10.6564 181.792 10.688C182.561 10.7864 182.738 11.0826 182.599 11.3788L182.543 11.4455L182.46 11.5439L171.532 13.6161L173.043 11.8073ZM102.192 25.1015H103.368V25.7805C103.653 25.5475 103.911 25.3778 104.144 25.2724C104.54 25.0968 104.992 25.009 105.497 25.009C106.068 25.009 106.528 25.098 106.878 25.2853C107.074 25.3906 107.252 25.544 107.414 25.7477C107.683 25.496 108 25.311 108.365 25.1893C108.729 25.0675 109.139 25.009 109.593 25.009C110.566 25.009 111.227 25.2373 111.578 25.695C111.769 25.9444 111.861 26.2758 111.861 26.6902V29.8373H110.616V26.5556C110.616 26.2383 110.493 26.0205 110.251 25.9011C109.972 25.7786 109.669 25.7193 109.364 25.7278C108.884 25.7278 108.47 25.8332 108.124 26.0416C107.777 26.2523 107.604 26.6001 107.604 27.0871V29.8384H106.404V26.7265C106.404 26.4022 106.345 26.1657 106.23 26.0182C106.046 25.7946 105.704 25.6845 105.201 25.6845C104.744 25.6845 104.328 25.8063 103.954 26.0498C103.579 26.2968 103.393 26.7242 103.393 27.3353V29.8396H102.193V25.1015H102.192V25.1015ZM114.826 25.1015V28.2778C114.826 28.5178 114.884 28.7168 114.999 28.8749C115.21 29.1605 115.604 29.3046 116.183 29.3046C117.01 29.3046 117.576 29.0528 117.875 28.5517C118.04 28.2836 118.121 27.916 118.121 27.4477V25.1015H119.319V29.8373H118.191L118.205 29.1769C118.042 29.3572 117.848 29.5068 117.631 29.6183C117.179 29.856 116.629 29.9777 115.983 29.9777C114.976 29.9777 114.288 29.7518 113.925 29.2987C113.726 29.0564 113.628 28.732 113.628 28.3293V25.1026H114.826V25.1015V25.1015ZM122.007 28.3527C122.027 28.5822 122.135 28.7956 122.308 28.9498C122.615 29.2015 123.147 29.3268 123.903 29.3268C124.355 29.3268 124.752 29.2624 125.095 29.1348C125.435 29.0072 125.607 28.8081 125.607 28.54C125.607 28.3363 125.471 28.1829 125.197 28.0764C125.023 28.0097 124.676 27.9371 124.161 27.8528L123.201 27.6947C122.586 27.5917 122.137 27.4793 121.844 27.354C121.323 27.141 121.066 26.8459 121.066 26.4666C121.066 26.0158 121.312 25.6529 121.805 25.3754C122.297 25.0991 122.962 24.961 123.796 24.961C124.886 24.961 125.674 25.1717 126.155 25.592C126.457 25.8578 126.603 26.1411 126.593 26.4467H125.441C125.41 26.2502 125.306 26.0723 125.149 25.9479C124.869 25.7372 124.383 25.6342 123.691 25.6342C123.232 25.6342 122.879 25.6915 122.643 25.8051C122.407 25.9222 122.288 26.0744 122.288 26.2605C122.288 26.4689 122.444 26.6375 122.755 26.7616C122.935 26.8366 123.2 26.9009 123.552 26.9536L124.354 27.0859C125.225 27.2229 125.81 27.3552 126.107 27.484C126.588 27.6877 126.829 28.0073 126.829 28.444C126.829 28.8643 126.584 29.2285 126.095 29.5375C125.606 29.8443 124.862 29.9977 123.86 29.9977C122.783 29.9977 122.02 29.8373 121.573 29.5223C121.123 29.205 120.884 28.8152 120.852 28.3515H122.007V28.3527ZM128.179 24.2667H129.379V23.3383H128.179V24.2667ZM128.179 29.8373H129.379V25.1015H128.179V29.8373ZM135.988 25.3508C136.498 25.6119 136.804 26.0615 136.905 26.7043H135.73C135.66 26.4012 135.485 26.1315 135.236 25.9409C134.984 25.7372 134.573 25.6365 134.011 25.6365C133.239 25.6365 132.688 25.8882 132.355 26.3917C132.142 26.7207 132.035 27.1281 132.035 27.6104C132.035 28.0905 132.186 28.5002 132.489 28.8292C132.796 29.1606 133.273 29.328 133.929 29.328C134.43 29.328 134.828 29.2273 135.12 29.0283C135.414 28.8269 135.616 28.5553 135.73 28.2146H136.905C136.771 28.8339 136.435 29.2846 135.896 29.5727C135.359 29.856 134.67 30 133.834 30C132.891 30 132.139 29.774 131.579 29.3186C131.02 28.8655 130.74 28.2965 130.74 27.6104C130.74 26.7757 131.049 26.1236 131.66 25.6599C132.277 25.1963 133.058 24.9621 134.008 24.9621C134.819 24.9621 135.48 25.0921 135.988 25.3508V25.3508ZM138.371 28.8854H139.784V29.8373H138.371V28.8854ZM217.852 2.23735C217.852 1.17546 218.663 0.374648 219.704 0.374648C220.73 0.374648 221.542 1.17546 221.542 2.23735C221.542 3.31681 220.73 4.11294 219.704 4.11294C218.662 4.11294 217.852 3.31681 217.852 2.23735ZM219.703 4.48642C220.943 4.48642 222 3.53574 222 2.23735C222 0.949495 220.943 0 219.703 0C218.451 0 217.392 0.949495 217.392 2.23735C217.392 3.53574 218.452 4.48642 219.703 4.48642ZM219.221 2.41531H219.678L220.371 3.53574H220.816L220.069 2.39658C220.454 2.34858 220.748 2.1472 220.748 1.68474C220.748 1.17428 220.442 0.949497 219.824 0.949497H218.825V3.53574H219.221V1.282H219.763C220.039 1.282 220.333 1.34171 220.333 1.66133C220.333 2.05823 220.031 2.08281 219.696 2.08281H219.221V2.41531V2.41531Z" fill="#828282"/>
</svg>

<svg width="222" height="30" fill="none" xmlns="http://www.w3.org/2000/svg"><path opacity=".7" fill-rule="evenodd" clip-rule="evenodd" d="M19.229 5.806l-3.2 5.035 8.179.005-9.245 11.312-.495.592-.356.428c-.714.791-1.733 1.185-3.143 1.219h-6.71L0 29.495h8.727c3.615 0 6.292-.656 9.233-2.27 1.404-.789 2.301-1.545 3.866-3.423L36.855 5.806H19.229zm32.536 13.898L59.952 9.9c.22-.263.44-.527.553-.79 1.04-2.138-.42-3.192-4.458-3.192h-9.782c-4.04 0-7.259 1.054-9.736 3.193-.299.236-.573.5-.82.789l-8.187 9.805c-.167.264-.385.526-.498.79-1.095 2.137.365 3.192 4.403 3.192h9.783c4.041 0 7.26-1.054 9.79-3.193.323-.262.544-.525.765-.789zm-6.724-1.053c-.646.326-1.344.525-1.714.525h-6.434a1.04 1.04 0 01-.764-.297c-.204-.261-.171-.559.133-.92l5.274-6.317c.303-.362.762-.658 1.407-.922.485-.197.94-.297 1.258-.297h6.433c.264 0 .555.099.71.297.258.263.222.56-.08.922l-5.247 6.285c-.219.265-.598.527-.976.724zm52.152 1.436c3.492-.297 6.824-1.612 9.3-3.752.384-.327.656-.658.929-.986l3.959-4.738c.244-.296.495-.593.661-.922 1.507-2.566-.003-3.882-4.571-3.882H85.795l-14.202 17.01-.442.526-.19.165c-.601.592-1.592.89-3.508.89h-5.58c-1.915 0-2.41-.298-2.023-.956l.137-.165.468-.558 14.12-16.912h-8.237l-14.863 17.8c-1.565 1.875-1.903 2.535-1.924 3.324.005 1.775 1.684 2.566 5.566 2.566h10.58c3.879 0 6.824-.792 9.88-2.6 1.295-.79 2.06-1.448 3.623-3.326l10.58-12.665h10.614c.159 0 .374 0 .504.033 1.326.132 1.554.56.865 1.383l-1.81 2.17c-.795.955-1.766 1.349-3.307 1.349h-3.349c-2.818 0-5.53 1.02-7.444 2.996-.739.756-.994 1.381-.899 1.842l1.302 8.818h9.728l-1.528-9.378 1.252.031c.472 0 .98-.031 1.485-.063zm41.441-10.748c1.311-2.271.148-3.422-3.896-3.422h-10.1c-4.037 0-7.127 1.151-9.607 3.422-.273.264-.572.56-.793.822l-11.293 13.525h7.283l10.03-12.01.218-.263c.737-.692 1.622-.988 3.166-.988h4.518c1.543 0 1.933.296 1.515.988-.025.098-.112.196-.165.263l-10.031 12.01h7.285l11.292-13.525c.216-.262.413-.557.578-.822zm2.932 8.59l.248-.298 19.695-3.85 2.969-3.553c.221-.264.44-.527.577-.756 1.277-2.04.457-3.16-2.617-3.488-.396-.033-.792-.067-1.221-.067h-9.887c-3.988 0-7.075 1.087-9.685 3.257a7.23 7.23 0 00-.899.888l-7.528 9.015c-1.734 2.073-1.763 3.258.072 4.114.71.361 1.557.494 3.894.494h16.002l3.764-4.51h-14.99c-.904.001-.997-.524-.394-1.247zm5.005-6.122c.134-.164.326-.329.542-.461.513-.295 1.024-.46 1.88-.592.423-.066.718-.098.878-.098h5.101c.109 0 .216 0 .348.032.766.098.948.395.804.69l-.053.067-.086.099-10.922 2.072 1.508-1.809zm52.777-.56c.106-.13.435-.328 1.131-.59l.243-.1c.228-.057.459-.101.693-.132h13.238l3.71-4.508h-14.675c-3.72 0-6.99 1.054-9.359 2.995-.43.328-.785.69-1.062 1.02l-2.776 3.322c-1.155 1.38-.941 2.403.922 3.29.63.33 1.555.494 2.723.494h6.274c.474.067.63.197.649.492a.804.804 0 01-.17.398l-.301.362a.802.802 0 01-.219.197c-.515.427-1.079.592-2.011.69h-29.93c-.906 0-.994-.525-.389-1.248l.243-.297 19.7-3.85 2.964-3.553c.211-.238.405-.491.58-.756 1.279-2.04.456-3.159-2.617-3.488-.399-.033-.797-.067-1.221-.067h-9.889c-3.986 0-7.073 1.087-9.688 3.257-.324.27-.624.567-.897.888l-7.53 9.015c-1.729 2.073-1.758 3.258.076 4.114.71.362 1.556.494 3.896.494h32.955c2.712 0 4.452-.43 7.198-1.811 1.245-.658 2.269-1.382 2.902-2.138l2.827-3.258c.633-.755.846-1.71.418-2.6-.503-.92-1.583-1.347-3.446-1.347h-6.484c-.797-.064-1.031-.164-1.108-.328-.072-.23-.014-.428.068-.527l.362-.43zm-26.305.56c.156-.181.339-.337.545-.461.512-.295 1.021-.46 1.877-.592.426-.066.72-.098.878-.098h5.106c.107 0 .211 0 .343.032.769.098.946.395.807.69l-.056.067-.083.099-10.928 2.072 1.511-1.809zm-70.851 13.295h1.176v.678c.285-.233.543-.402.776-.508a3.31 3.31 0 011.353-.263c.571 0 1.031.089 1.381.276.196.106.374.259.536.463.269-.252.586-.437.951-.559.364-.122.774-.18 1.228-.18.973 0 1.634.228 1.985.686.191.25.283.58.283.995v3.147h-1.245v-3.281c0-.318-.123-.536-.365-.655a2.064 2.064 0 00-.887-.173c-.48 0-.894.105-1.24.314-.347.21-.52.558-.52 1.045v2.751h-1.2v-3.111c0-.325-.059-.561-.174-.709-.184-.223-.526-.334-1.029-.334-.457 0-.873.122-1.247.366-.375.247-.561.674-.561 1.285v2.505h-1.2v-4.738h-.001zm12.634 0v3.176c0 .24.058.439.173.597.211.285.605.43 1.184.43.827 0 1.393-.252 1.692-.753.165-.268.246-.636.246-1.104v-2.346h1.198v4.735h-1.128l.014-.66c-.163.18-.357.33-.574.441-.452.238-1.002.36-1.648.36-1.007 0-1.695-.226-2.058-.68-.199-.242-.297-.566-.297-.969v-3.226h1.198V25.1zm7.181 3.25c.02.23.128.444.301.598.307.252.839.377 1.595.377.452 0 .849-.065 1.192-.192.34-.128.512-.327.512-.595 0-.204-.136-.357-.41-.464-.174-.066-.521-.139-1.036-.223l-.96-.158c-.615-.103-1.064-.216-1.357-.341-.521-.213-.778-.508-.778-.887 0-.451.246-.814.739-1.092.492-.276 1.157-.414 1.991-.414 1.09 0 1.878.21 2.359.631.302.266.448.55.438.855h-1.152a.794.794 0 00-.292-.5c-.28-.21-.766-.313-1.458-.313-.459 0-.812.058-1.048.171-.236.117-.355.27-.355.456 0 .208.156.377.467.5.18.076.445.14.797.193l.802.132c.871.137 1.456.27 1.753.398.481.204.722.523.722.96 0 .42-.245.785-.734 1.094-.489.306-1.233.46-2.235.46-1.077 0-1.84-.16-2.287-.476-.45-.317-.689-.707-.721-1.17h1.155zm6.172-4.085h1.2v-.929h-1.2v.929zm0 5.57h1.2v-4.735h-1.2v4.735zm7.809-4.486c.51.26.816.71.917 1.353h-1.175a1.343 1.343 0 00-.494-.763c-.252-.204-.663-.304-1.225-.304-.772 0-1.323.251-1.656.755-.213.329-.32.736-.32 1.218 0 .48.151.89.454 1.22.307.33.784.498 1.44.498.501 0 .899-.1 1.191-.3.294-.201.496-.473.61-.813h1.175c-.134.619-.47 1.07-1.009 1.358-.537.283-1.226.427-2.062.427-.943 0-1.695-.226-2.255-.681-.559-.453-.839-1.022-.839-1.709 0-.834.309-1.486.92-1.95.617-.464 1.398-.698 2.348-.698.811 0 1.472.13 1.98.389zm2.383 3.534h1.413v.952h-1.413v-.952zm79.481-26.648c0-1.062.811-1.862 1.852-1.862 1.026 0 1.838.8 1.838 1.862 0 1.08-.812 1.876-1.838 1.876-1.042 0-1.852-.796-1.852-1.876zm1.851 2.25c1.24 0 2.297-.951 2.297-2.25C222 .95 220.943 0 219.703 0c-1.252 0-2.311.95-2.311 2.237 0 1.299 1.06 2.25 2.311 2.25zm-.482-2.072h.457l.693 1.12h.445l-.747-1.138c.385-.048.679-.25.679-.712 0-.51-.306-.736-.924-.736h-.999v2.587h.396V1.282h.542c.276 0 .57.06.57.38 0 .396-.302.42-.637.42h-.475v.333z" fill="#828282"/></svg>
